X:1
T: Pinwheel
R: reel
C: Rick Gagne
N: 1988 on tenor banjo
M: 4/4
Q: 1/4=175
K: D
AB | "D"d2cd Adcd | "G"Bdcd "A"cdec | "D"~d2cd Adcd | "G"Bdce "D"d2 :|
de | "Bm"~f2df "D"afdf | "G"gBdf "A"eAce | "D"f2df afdA | "A"Bdce "D"d2de |
"Bm"~f2df "D"afdf | "G"gBdf "A"eAce | "D"d2cd Adcd | "G"Bdce "D"d2 ||
